X: 24169
T: Lord Alexander's
R: reel
M: 4/4
K: Dmajor
d2 dc dAFA|f2 fe fg a2|FGGB GBGB|g2 ga gfed|c2 cc cAce|
a2 aa a2 (3ef^g|1 a2 ^ga b2 a2|f3 g fABc:|2 a2 ^ga b2 c2|H d4 efed||
c2 cc cace|a2 a2 efed|c2 cc cace|a2 a2 efed|
c2 cc cace|a2 a2 efed|c3 d cace|a2 (3ABc B2 c2||

